icons/quarkus.svg

<svg width="16" height="16" viewBox="0 0 16 16" fill="none" xmlns="http://www.w3.org/2000/svg">
<path fill-rule="evenodd" clip-rule="evenodd" d="M5.92304 6.32063L5.92303 4.00011L8.00768 5.16249L5.92304 6.32063ZM10.1 6.32913L12.1999 7.50007L10.1 8.67099L10.1 6.32913ZM8.00766 9.83763L5.92304 11L5.92304 8.6795L8.00766 9.83763Z" fill="#FF437A"/>
<path fill-rule="evenodd" clip-rule="evenodd" d="M2 4C2 2.89543 2.89543 2 4 2H12C13.1046 2 14 2.89543 14 4V12C14 13.1046 13.1046 14 12 14H11L10.25 12.5H11.5C12.0523 12.5 12.5 12.0523 12.5 11.5V4.5C12.5 3.94772 12.0523 3.5 11.5 3.5H4.5C3.94772 3.5 3.5 3.94772 3.5 4.5V11.5C3.5 12.0523 3.94772 12.5 4.5 12.5H6.85714L8 10.5L10 14H7H6H4C2.89543 14 2 13.1046 2 12V4ZM3.80005 7.50005L5.92304 8.6795L5.92304 6.32062L3.80005 7.50005ZM10.1 8.67099L8.00766 9.83763L10.1 11L10.1 8.67099ZM8.00768 5.16248L10.1 6.32912L10.1 4.0001L8.00768 5.16248Z" fill="#5EA9FB"/>
</svg>

<svg xmlns="http://www.w3.org/2000/svg" width="16" height="16" fill="none"><path fill="#FF437A" fill-rule="evenodd" d="M5.923 6.32V4l2.085 1.162-2.085 1.159Zm4.177.01 2.1 1.17-2.1 1.171V6.329ZM8.008 9.837 5.923 11V8.68l2.085 1.158Z" clip-rule="evenodd"/><path fill="#5EA9FB" fill-rule="evenodd" d="M2 4a2 2 0 0 1 2-2h8a2 2 0 0 1 2 2v8a2 2 0 0 1-2 2h-1l-.75-1.5h1.25a1 1 0 0 0 1-1v-7a1 1 0 0 0-1-1h-7a1 1 0 0 0-1 1v7a1 1 0 0 0 1 1h2.357L8 10.5l2 3.5H4a2 2 0 0 1-2-2V4Zm1.8 3.5 2.123 1.18V6.32L3.8 7.5Zm6.3 1.171L8.008 9.838 10.1 11V8.671ZM8.008 5.162 10.1 6.33V4L8.008 5.162Z" clip-rule="evenodd"/></svg>
